X:1
T:The Well-Tempered Clavier Part I Praeludium XVI
T:BWV 861
T:J. S. Bach
%%score { ( 1 2 ) | ( 3 4 ) }
L:1/8
Q:1/4=60
M:4/4
K:Bb
V:1 treble nm="Harp"
V:2 treble 
V:3 bass 
V:4 bass 
V:1
"^Lent" a/4g/4a/4g/4a/4g/4a/4g/4 a/4g/4a/4g/4a/4g/4a/4g/4 a/4g/4a/4g/4a/4g/4a/4g/4 a/4g/4a/4g/4a/4g/4a/4g/4- | %1
 g/d/e/4d/4c/ d/g/c/4B/4A/ B/g/c/4B/4A/ B/g/A/4G/4^F/ | %2
 A/4G/4A/4G/4A/4G/4A/4G/4 A/4G/4A/4G/4A/4G/4A/4G/4 A/4G/4A/4G/4A/4G/4A/4G/4 A/4G/4A/4G/4A/4G/4A/4G/4- | %3
 G/=e/B/4A/4G/ A/e/G/4^F/4=E/ F>G F/A/d/4c/4B/ | %4
 c/e/d/4c/4B/ c/a/c/4B/4A/ B/d/c/4B/4A/ B/g/B/4A/4G/ | %5
 A/F/B/4c/4d/ c/F/d/4e/4f/ e/c/g/4a/4b/ a/4b/4c'/f/4g/4e/ | z/ b/g/b/ f/b/e/b/ f/b/g/b/ f/b/e/a/ | %7
 b6 f2- | f/g/4f/4e/4f/4d/ e2- e/f/4e/4d/4e/4c/ d2- | d/e/4d/4c/4d/4=B/ c2- c/d/4c/4B/4c/4=A/ B2 | %10
 z/ c/_A/c/ G/c/F/c/ G/c/A/c/ G/c/F/=B/ | c2 e2- e/a/4g/4^f/4g/4a/ d<e | %12
 dc B2- B/e/4d/4c/4d/4e/ _A/c/4B/4A/4B/4c/ | ^F2 z/ G/4A/4B/4A/4G/ c2 B2 | %14
 A2 G2 ^F2 z/ g/f/4e/4d/ | e/c'/d/4c/4B/ c/a/B/4A/4G/ A/e/4d/4c/4B/4A/ B2- | %16
 B/c/4B/4_A/4c/4^F/ G2- G2 F2 | z/ D/4G/4F/4E/4D/ ED z/ G/4c/4B/4A/4G/ A/c/4A/4G/4^F/4=E/ | %18
 ^F4 !fermata!G4 |] %19
V:2
[I:staff +1] B,/D/C/E/ B,/D/A,/C/ B,/D/C/E/ B,/D/A,/C/ | B,C B,E DE DC | %2
 B,/C/D- D/CB,/- B,/A,B,/- B,/CB,/ | A,G, =E,A,- A,/C/B,- B,/A,G,/- | %4
 G,G, ^F,2[I:staff -1] z[I:staff +1] D, =E,2 | F,G, A,B, CB, CA, |[I:staff -1] de dc de dc | %7
 de fg de- e/d/=B/d/ | G2- G/c/4B/4_A/4B/4c/ F2- F/B/4A/4G/4A/4B/ | %9
 E2- E/_A/4G/4F/4G/4A/ D2- D/E/4F/4E/4F/4D/ | EF ED EF ED | E G2 c- c2- c/>c/A/4B/4c/ | %12
 B^F GD E4- | E2 D2 z/ ^F/4G/4A/4G/4F/ z/ =E/4F/4G/4F/4E/ | %14
 z/ D/4=E/4^F/4E/4D/ z/ ^C/4D/4E/4D/4C/ D2 z2 | z6 z/ A/4G/4F/4E/4D/ | %16
 E2 =E2 z/ A,/4B,/4C/4B,/4A,/ z/ C/4D/4_E/4D/4C/ | B,=B, CB, C4- | %18
 C2- C/D/4E/4D/4E/4C/- C/C/4=B,/4A,/4B,/4C/ C/4B,/4C/4B,/4C/4B,/4C/4!fermata!B,/4 |] %19
V:3
 G,G, G,G, G,G, G,G, | G,8- | G,>F, E,D, C,D, E,D, | ^C,4 D,>D, =C,B,, | A,,3 D, G,,3 C, | %5
 F,,2 z2 z4 | %6
 C/4B,/4C/4B,/4C/4B,/4C/4B,/4 C/4B,/4C/4B,/4C/4B,/4C/4B,/4 C/4B,/4C/4B,/4C/4B,/4C/4B,/4 C/4B,/4C/4B,/4C/4B,/4C/4B,/4- | %7
 B,/B,,/C,/4D,/4E,/ D,/B,,/E,/4F,/4G,/ F,/B,,/G,/4_A,/4B,/ A,/4B,/4A,/G,/4A,/4F,/ | %8
 =B,G, C_B, _A,F, B,A, | G,E, _A,G, F,D, G,G,, | %10
 D,/4C,/4D,/4C,/4D,/4C,/4D,/4C,/4 D,/4C,/4D,/4C,/4D,/4C,/4D,/4C,/4 D,/4C,/4D,/4C,/4D,/4C,/4D,/4C,/4 D,/4C,/4D,/4C,/4D,/4C,/4D,/4C,/4- | %11
 C,/G,,/E,,/4F,,/4G,,/ C,,/ C/4B,/4A,/4B,/4C/ ^F,4 | %12
 G,/D,/4C,/4B,,/4C,/4D,/ G,,/G,/4F,/4E,/4F,/4G,/ C,4 | D,/A,/4B,/4C/4B,/4A,/ B,D, A,D, G,D, | %14
 ^F,D, =E,D, C,/A,/4G,/4F,/4G,/4A,/ B,,=B,, | C,/A,/B,,/G,/ A,,/^F,/G,,/E,/ ^F,,D,, G,,G, | %16
 z C[I:staff -1] B,2[I:staff +1] D,4 | z2 z/ C,/4G,/4F,/4E,/4D,/ E,4- | %18
 E,/E,/4D,/4C,/4D,/4E,/- E,2 D,4 |] %19
V:4
 x8 | x8 | x8 | x8 | x8 | x8 | x8 | x8 | x8 | x8 | x8 | x8 | x8 | x8 | x8 | x8 | %16
 C,2 z/ ^C,/4D,/4=E,/4D,/4C,/ z2 D,,2 | G,,8- | G,,2 G,,2- !fermata!G,,4 |] %19

